X: 30601
T: MISS LUCY LONG
C:
%R: march, reel
B: Elias Howe "The Musician's Companion" Part 3 1844 p.60 #1
S: http://imslp.org/wiki/The_Musician's_Companion_(Howe,_Elias)
S: https://archive.org/stream/firstthirdpartof03howe/#page/66/mode/1up
Z: 2015 John Chambers <jc:trillian.mit.edu>
N: See tune 31502 (COTILLION No. 37. LUCY LONG SETT tune 2) for another version of this tune.
N: Added sharp to voice 2's G in bar 14, to match the bass line.
M: 2/4
L: 1/16
K: G
% - - - - - - - - - - - - - - - - - - - - - - - - -
V: 1 staves=3
(GA) |\
.B2.B2 .G2.G2 | .F2.A2 z2B2 | .c2.c2 .F2.F2 | {A}.G4 z2(GA) |\
.B2.B2 .G2.G2 | F2d2 z2.d.d | .c2.c2 .E2.F2 | G4 z2 :|
|: (GA) |\
.B2.B2 .G2.G2 | FA3 z2 {A}B2 | .c2.c2 .E2.F2 | G4 z2 [gG][aA] |\
.[b2B2].[b2B2] .[g2G2].[g2G2] | [f3F3][aA] z2[b2B2] |\
.[c'2c2].[c'2c2] .[e2E2].[f2F2] | [g4G4] z2 :|
% - - - - - - - - - - - - - - - - - - - - - - - - -
V: 2
(B,C) |\
.D2.D2 .D2.D2 | .D2.F2 .D2.G2 | .E2.E2 .C2.C2 |\
B,2D2B,2 (DC) | .B,2.B,2 .D2.D2 | D2F2 D2B2 | E2E2 C2C2 | B,4 z2 :|
|: (B,C) |\
DGDG DGDG | DAFA D2G2 | EAEA CDCD | B,GDG B,2B,C |\
DGDG DGDG | DAFA D2[B2^G2] | EAEA CDCD | B,4 z2 :|
% - - - - - - - - - - - - - - - - - - - - - - - - -
V: 3 clef=bass middle=d
z2 |\
G2G2 B2B2 | d4 z2B2 | A2A2 d2d2 | G4 z2(ba) |\
.g2.g2 .b2.b2 | d'4 z2^g2 | a2a2 d2d2 | g4 z2 :|
|: z2 |\
G2G2 B2B2 | d4 z2B2 | A2A2 d2d2 | G4 z2(ba) |\
g2g2 b2b2 | d'4 z2^g2 | a2a2 d2d2 | G4 z2 :|
% - - - - - - - - - - - - - - - - - - - - - - - - -
